dist/assets/images/icons/filter.svg

<svg viewBox="0 0 16 16" fill="none" xmlns="http://www.w3.org/2000/svg">
<g clip-path="url(#clip0_704_23020)">
<path d="M7.53077 16H5.89474V7.9276L0 1.26093V0H16V1.25373L10.386 7.9204V13.2876L7.53077 16ZM7.01754 14.9333H7.06572L9.26316 12.8458V7.54627L14.7196 1.06667H1.29474L7.01754 7.53907V14.9333Z" fill="black"/>
</g>
<defs>
<clipPath id="clip0_704_23020">
<rect width="16" height="16" fill="white"/>
</clipPath>
</defs>
</svg>

<svg viewBox="0 0 16 16" fill="none" xmlns="http://www.w3.org/2000/svg"><g clip-path="url(#clip0_704_23020)"><path d="M7.53 16H5.896V7.928L0 1.26V0h16v1.254L10.386 7.92v5.368L7.531 16zm-.512-1.067h.048l2.197-2.087v-5.3l5.457-6.48H1.295L7.018 7.54v7.394z" fill="#000"/></g><defs><clipPath id="clip0_704_23020"><path fill="#fff" d="M0 0h16v16H0z"/></clipPath></defs></svg>
